libs/ui/packages/crypto-icons/src/svg/GVT.svg

<svg width="24" height="24" viewBox="0 0 24 24" fill="none">
<path d="M19.5 8.76975C19.5 12.8257 16.1348 16.125 12 16.125C7.86525 16.125 4.5 12.825 4.5 8.77125C4.5 8.47275 4.518 8.1735 4.5555 7.8765H5.9025C5.8575 8.17275 5.835 8.472 5.835 8.77125C5.835 12.105 8.601 14.8177 12.0007 14.8177C15.2452 14.8177 17.9123 12.3488 18.1508 9.2265H8.61C8.8125 10.6845 9.96225 11.8425 11.4427 12.0817C12.924 12.3202 14.3903 11.5838 15.0592 10.2668H16.503C15.8468 12.1583 14.0355 13.4303 11.9985 13.4318C9.3765 13.4318 7.24275 11.34 7.24275 8.76975C7.24275 8.46975 7.27275 8.16975 7.3305 7.875H19.4445C19.482 8.172 19.5 8.4705 19.5 8.76975Z" fill="#16B9AD"/>
</svg>

<svg width="24" height="24" viewBox="0 0 24 24" fill="none"><path fill="#16b9ad" d="M19.5 8.77c0 4.056-3.365 7.355-7.5 7.355s-7.5-3.3-7.5-7.354q0-.448.056-.895h1.346a6 6 0 0 0-.067.895c0 3.334 2.766 6.047 6.166 6.047 3.244 0 5.911-2.47 6.15-5.591H8.61c.203 1.457 1.352 2.615 2.833 2.855 1.481.238 2.947-.498 3.616-1.815h1.444c-.656 1.891-2.467 3.163-4.504 3.165-2.623 0-4.756-2.092-4.756-4.662q0-.451.087-.895h12.115q.055.445.055.895"/></svg>
